X:1
T: Forked Deer
M: C
L: 1/8
R: Reel
K:D
|:\
"D"defg a2fa | "G"gbag "A7"fdec | "D"defg agfa | "G"gfed "A7"cABc |
"D"defg a2fa | "G"gbag "A7"fdec | "D"d2F2 "G"GBAG | "A7"FDEC "D"D4 :|
|:\
"A"A2Ac BAcB | AcBA "(E7)"FEF^G | "A"A2Ac BAcB | "(D)"AFEF "D"D4 |
"A"A2Ac BAcB | AcBA F2E2 | A,B,CD EFGE | "(D)"FDEF "D"D4 :|
